X:1
T: The Belles of Omaha
C:
R:Reel
Q:232
K:Em
M:4/4
L:1/8
|:B2BA BG EF|GA Bd ef ge|B2BA BG EF|GB AF EF GA|
B2BA BG EF|GA Bd ef ge|B2BA BG EF|GB AF EF GA:|
|:Bd ef gf gb|ag fg ed BA|Bd ef gf gb|ag fg ef ge|
B2BA BG EF|GA Bd ef ge|B2BA BG EF|1GB AF E2B2:|2GB AF E2E2||
